src/assets/filled/ProfileRemove.svg

<svg width="24" height="24" viewBox="0 0 24 24"  xmlns="http://www.w3.org/2000/svg">
<path d="M12 2C9.38 2 7.25 4.13 7.25 6.75C7.25 9.32 9.26 11.4 11.88 11.49C11.96 11.48 12.04 11.48 12.1 11.49C12.12 11.49 12.13 11.49 12.15 11.49C12.16 11.49 12.16 11.49 12.17 11.49C14.73 11.4 16.74 9.32 16.75 6.75C16.75 4.13 14.62 2 12 2Z" />
<path d="M17.08 14.1601C14.29 12.3001 9.73996 12.3001 6.92996 14.1601C5.65996 15.0001 4.95996 16.1501 4.95996 17.3801C4.95996 18.6101 5.65996 19.7501 6.91996 20.5901C8.31996 21.5301 10.16 22.0001 12 22.0001C13.84 22.0001 15.68 21.5301 17.08 20.5901C18.34 19.7401 19.04 18.6001 19.04 17.3601C19.03 16.1401 18.34 14.9901 17.08 14.1601ZM13.83 18.0701H10.18C9.79996 18.0701 9.48996 17.7601 9.48996 17.3801C9.48996 17.0001 9.79996 16.6901 10.18 16.6901H13.83C14.21 16.6901 14.52 17.0001 14.52 17.3801C14.52 17.7601 14.21 18.0701 13.83 18.0701Z" />
</svg>

<?xml version="1.0" encoding="UTF-8"?>
<svg width="24" height="24" viewBox="0 0 24 24" xmlns="http://www.w3.org/2000/svg">
 <path d="m12 2c-2.62 0-4.75 2.13-4.75 4.75 0 2.57 2.01 4.65 4.63 4.74 0.08-0.01 0.16-0.01 0.22 0h0.05 0.02c2.56-0.09 4.57-2.17 4.58-4.74 0-2.62-2.13-4.75-4.75-4.75z"/>
 <path d="m17.08 14.16c-2.79-1.86-7.34-1.86-10.15 0-1.27 0.84-1.97 1.99-1.97 3.22s0.7 2.37 1.96 3.21c1.4 0.94 3.24 1.41 5.08 1.41s3.68-0.47 5.08-1.41c1.26-0.85 1.96-1.99 1.96-3.23-0.01-1.22-0.7-2.37-1.96-3.2zm-3.25 3.91h-3.65c-0.38004 0-0.69004-0.31-0.69004-0.69s0.31-0.69 0.69004-0.69h3.65c0.38 0 0.69 0.31 0.69 0.69s-0.31 0.69-0.69 0.69z"/>
</svg>
